src/icons/vpn.svg

<?xml version="1.0" encoding="UTF-8" standalone="no"?>
<!-- Uploaded to: SVG Repo, www.svgrepo.com, Generator: SVG Repo Mixer Tools -->

<svg
   width="800"
   height="800"
   viewBox="0 0 24 24"
   fill="none"
   version="1.1"
   id="svg1"
   xmlns="http://www.w3.org/2000/svg"
   xmlns:svg="http://www.w3.org/2000/svg">
  <defs
     id="defs1" />
  <path
     fill-rule="evenodd"
     clip-rule="evenodd"
     d="M 21,11.9012 V 6.42911 C 21,4.16001 21,3.02545 20.2927,2.40466 19.5855,1.78386 18.5045,1.97055 16.3424,2.34392 L 15.288,2.52602 C 13.6477,2.80927 12.8276,2.9509 12,2.9509 11.1724,2.9509 10.3523,2.80927 8.71202,2.52602 L 7.6576,2.34392 C 5.49553,1.97055 4.4145,1.78386 3.70725,2.40466 3,3.02545 3,4.16001 3,6.42911 V 11.9012 C 3,17.5901 7.23896,20.3508 9.89856,21.523 10.62,21.841 10.9807,22 12,22 13.0193,22 13.38,21.841 14.1014,21.523 16.761,20.3508 21,17.5901 21,11.9012 Z M 7.1709,9.14008 C 7.29437,8.88406 7.75678,8.53367 8.5,8.53367 c 0.74322,0 1.20563,0.35039 1.3291,0.60641 0.1852,0.38393 0.6356,0.53964 1.0061,0.34779 0.3706,-0.19184 0.5209,-0.6586 0.3357,-1.04253 C 10.7121,7.49404 9.60349,6.97943 8.5,6.97943 7.39651,6.97943 6.28787,7.49404 5.8291,8.44534 5.64395,8.82927 5.79422,9.29603 6.16475,9.48787 6.53528,9.67972 6.98575,9.52401 7.1709,9.14008 Z M 15.5,8.53367 c -0.7432,0 -1.2056,0.35039 -1.3291,0.60641 -0.1852,0.38393 -0.6356,0.53964 -1.0061,0.34779 -0.3706,-0.19184 -0.5209,-0.6586 -0.3357,-1.04253 0.4588,-0.9513 1.5674,-1.46591 2.6709,-1.46591 1.1035,0 2.2121,0.51461 2.6709,1.46591 0.1852,0.38393 0.0349,0.85069 -0.3357,1.04253 C 17.4647,9.67972 17.0143,9.52401 16.8291,9.14008 16.7056,8.88406 16.2432,8.53367 15.5,8.53367 Z M 7.98852,14.5419 C 7.68858,14.2459 7.67123,13.7484 7.9569,13.4376 8.2402,13.1293 8.72388,13.1275 9.02418,13.416 c 0.01937,0.0156 0.06655,0.0531 0.10231,0.0785 0.10072,0.0716 0.26776,0.1769 0.50656,0.2857 0.47505,0.2163 1.24735,0.4524 2.36695,0.4524 1.1196,0 1.8919,-0.2361 2.3669,-0.4524 0.2388,-0.1088 0.4059,-0.2141 0.5066,-0.2857 0.0504,-0.0358 0.0843,-0.0632 0.1023,-0.0785 0.0077,-0.0065 0.0125,-0.0107 0.0144,-0.0125 l 8e-4,-7e-4 c 0.3003,-0.2878 0.769,-0.2732 1.0521,0.0348 0.2857,0.3108 0.2741,0.8027 -0.0259,1.0987 l -0.0012,0.0012 -0.0014,0.0014 -0.0031,0.003 -0.0074,0.0071 -0.0199,0.0185 c -0.0154,0.0141 -0.0353,0.0318 -0.0598,0.0525 -0.049,0.0415 -0.1163,0.095 -0.2026,0.1563 -0.1727,0.1227 -0.4213,0.2764 -0.7512,0.4267 -0.6625,0.3017 -1.6402,0.5838 -2.9706,0.5838 -1.3304,0 -2.30808,-0.2821 -2.97055,-0.5838 C 8.6995,15.0527 8.45092,14.899 8.2782,14.7763 8.19189,14.715 8.1246,14.6615 8.07562,14.62 8.05246,14.6005 8.00187,14.5544 7.99015,14.5434 Z"
     fill="#1C274C"
     id="path1"
     style="fill:#ffffff;fill-opacity:1;stroke:#000000;stroke-opacity:1" />
</svg>

<svg width="800" height="800" viewBox="0 0 24 24" fill="none" xmlns="http://www.w3.org/2000/svg"><path fill-rule="evenodd" clip-rule="evenodd" d="M21 11.901V6.43c0-2.269 0-3.404-.707-4.024-.707-.621-1.788-.434-3.95-.061l-1.055.182c-1.64.283-2.46.425-3.288.425-.828 0-1.648-.142-3.288-.425l-1.054-.182c-2.162-.373-3.244-.56-3.95.06C3 3.026 3 4.16 3 6.43v5.472c0 5.69 4.239 8.45 6.899 9.622.721.318 1.082.477 2.101.477 1.02 0 1.38-.159 2.101-.477C16.761 20.351 21 17.59 21 11.901zM7.17 9.141c.124-.257.587-.607 1.33-.607.743 0 1.206.35 1.33.606a.738.738 0 001.005.348.79.79 0 00.336-1.043C10.712 7.494 9.603 6.98 8.5 6.98c-1.103 0-2.212.515-2.67 1.466a.79.79 0 00.335 1.043.738.738 0 001.006-.348zm8.33-.607c-.743 0-1.206.35-1.33.606a.738.738 0 01-1.005.348.79.79 0 01-.336-1.043c.459-.951 1.567-1.466 2.671-1.466 1.103 0 2.212.515 2.67 1.466a.79.79 0 01-.335 1.043.738.738 0 01-1.006-.348c-.123-.256-.586-.606-1.329-.606zm-7.511 6.008a.804.804 0 01-.032-1.104.748.748 0 011.067-.022l.102.079c.101.071.268.176.507.285.475.217 1.247.453 2.367.453 1.12 0 1.892-.236 2.367-.453.239-.109.406-.214.506-.285a1.523 1.523 0 00.117-.091l.001-.001a.731.731 0 011.052.035.797.797 0 01-.026 1.098l-.001.002h-.001l-.004.004-.007.007-.02.019a3.027 3.027 0 01-.262.209 4.57 4.57 0 01-.751.426c-.663.302-1.64.584-2.971.584-1.33 0-2.308-.282-2.97-.584a4.569 4.569 0 01-.752-.427 3.018 3.018 0 01-.288-.233z" fill="#fff" stroke="#000"/></svg>
